!!!OTL: 347. Lob der Maessigkeit.
!!!COM: W. Mueller
!!!ODT: 1794
!!!ARE: Europa, Mitteleuropa, Deutschland
!!!SCT: B0347
!!!TXL: @@DE
!!!YEM: Copyright 1995, estate of Helmut Schaffrath.
**kern	**text
*ICvox	*
*Ivox	*
*clefG2	*
*M2/4	*
*k[b-]	*
*F:	*
!LO:TX:a:t=Luſtig.	!
{16fL	Wer
16aJ	.
=1	=1
16ccL	nie-
16ddJ	.
16ccL	-mals
16bJ	.
16ccL	ei-
16ddJ	.
16ccL	-nen
16bJ	.
=2	=2
8cc	Rauſch
8a	ge-
8f}	-habt,
{8a	das
=3	=3
8g	iſt
8b-	kein
8c	rech-
8e	-ter
=4	=4
8fL	Mann,
8a	.
8ccJ}	.
{8a	das
=5	=5
8g	iſt
8b-	kein
8c	rech-
8e	-ter
=6	=6
4f	Mann.
8r}	.
{16fL	Wer
16aJ	.
=7	=7
16ccL	ſei-
16ddJ	.
16ccL	-nen
16bJ	.
16ccL	Durſt
16ddJ	.
16ccL	mit
16bJ	.
=8	=8
8cc	Sei-
8a	-deln
8f}	labt,
{8a	fang'
=9	=9
8g	lie-
8b-	-ber
8c	gar
8e	nicht
=10	=10
8fL	an,
8a	.
8ccJ}	.
{8a	fang'
=11	=11
8g	lie-
8b-	-ber
8c	gar
8e	nicht
=12	=12
4f	an!
8r}	.
{8a	Da
=13	=13
8g	dreht
8g	ſich
8a	Al-
8a	-les
=14	=14
8b-	um
8b-	und
8a}	um
{8a	in
=15	=15
8g	un-
8g	-ſerm
8a	Ca-
8a	-pi-
=16	=16
8b-	-to-
8b-	-li-
8a}	-um,
{8a	in
=17	=17
8g	un-
8g	-ſerm
8a	Ca-
8a	-pi-
=18	=18
4b-	-to-
4r	.
=19	=19
4a	-li-
4r	.
=20	=20
4.g;}	-um!
{16fL	Wer
16aJ	.
=21	=21
16ccL	nie-
16ddJ	.
16ccL	-mals
16bJ	.
16ccL	ei-
16ddJ	.
16ccL	-nen
16bJ	.
=22	=22
8cc	Rauſch
8a	ge-
8f}	-habt,
{8a	das
=23	=23
8g	iſt
8b-	kein
8c	rech-
8e	-ter
=24	=24
8fL	Mann,
8a	.
8ccJ}	.
{8a	das
=25	=25
8g	iſt
8b-	kein
8c	rech-
8e	-ter
=26	=26
4f	Mann.
8r}	.
==	==
!!!AGN: Trink - Lied
!!!GTL: Wein- und Trinklieder
!!!ONB: ESAC (Essen Associative Code) Database: BOEHME
!!!AMT: simple duple
!!!AIN: vox
!!!EED: Helmut Schaffrath
!!!EEV: 1.0
!!@@COMMENT:"Lied des Hausmeiſters in dem komiſchen Singſpiel "Das neue Sonntagskind". Text von
!!Joachim Perinet. Muſik von Wenʒel Müller. (Wien 1794. ) Originaltext bei Erlach. Volksl. V.
!!S. 542. Hier iſt vom Original nur die Anfangsſtrophe geblieben, alles übrige abgeändert und
!!ʒugeſetʒt. Noch jetʒt in allen Taſchenliederbüchern. Jſt das ſcherʒhafte Trinklied ein Spiegelbild
!!deutſcher Unſitte, ſo iſt es doch noch lange nicht ſo ſchlecht, als viel Sauflieder der Studenten, beſonders im 17. und 18. Jahrhundert."
!!@@END:
!!!Text: J. Perinet
!!!URL-scan: https://archive.org/details/BoehmeVtLieder1895/page/n289/mode/2up
!!!ENC: Anna Maria Matuszewska
!!!EEV: 2024/05/07
*-	*-
